X:1
T: McVicar's Strathspey
C:Nathaniel Gow
R:Strathspey
Q: 128
K:C
M:4/4
L:1/16
|:c2|GE3 E3c GE3 E3c|GE3 c3E D4 D2c2|G2E2 E3G c3d e3d|c3A G2E2 D4 D2c2|
GE3 E3c GE3 E3c|GE3 c3E D4 D2c2|G2E2 E3G c3d e3d|c3A G2E2 D4 D2c2|
c2ef g2e2 cg3 ea3|gc3 g3e d4 d2e2|c2ef g2e2 cg3 e3d|c3A c2E2 D4 D2e2|
c2ef g2e2 cg3 ea3|gc3 g3e d4 d2ef|g3e f3d e3c d3B|c3A G2E2 D4 D2:|
